X:2
T:Waltz by Davis. JBs.002
R:Waltz
S:Jas.Blackshaw MS, 1837, N.Shropshire
A:North Shropshire
Z:T. Weatherall 2006
M:3/8
L:1/16
Q:3/8=60
K:C
G2|cBcdef|g2e2e2|f2d2d2|B2GABG|dBcdef|g2e2e2|f2d2B2|c4:|!
|:ed|cBAGAB|c2c2e2|g2a2gf|e4ed|cBAGAB|c2e2ge|f2d2B2|c4:|!
|:â€horn soloâ€z2|c2c2c2|G2G2G2|E2E2E2|G6|c4d2|e4c2|d2d2d2|d6||!
g2fedc|B2d2G2|E2G2c2|e4e2|g2fedc|B2d2G2|A2fedc|c4:|

